X:7688
T:Trip to the Cottage. GHW.012
O:england
M:6/8
L:1/8
Q:120
S:George H.Watson,MS,Swanton Abbott,Norfolk,1850-1880
R:Jig
A:Norfolk
K:G
d|dBB BGG|cAA AFD|DGG FAA|BBB A2 d|dBB BGG|dAA AFD|DGG FAA|BGG G2:|
d|gfe dcB|edc Bcd|edA dBG|FAA A2d|gfe dcB|edc Bcd|efg agf|edc d3||g2g2g
2
||


